!!!!SEGMENT: pl-cz--iii-366--004_kreith--partita-dis-presto.krn
!!!id: 18xx:2481
!!!COM: Kreith
!!!COM-rism: pe30099691
!!!CDT:
!!!CNT:
!!!OTL: Partita Dis - Presto
!!!PDT:
!!!SMS-siglum: PL-CZ
!!!SMS-shelfmark: III-366
!!!NIFC-rismID: 300000644
!!!URL-scan: http://repozytorium.nifc.pl/skany/pl-cz-nut--iii-366
!!!ONB-nifc: UWAGA: części Partity: 1. Allegro, 2. Menuetto, 3. Andante, 4. Presto
!!!SMS-variant:
!!!SMS-altvar:
**kern	**kern	**kern	**kern	**kern	**dynam
*part5	*part4	*part3	*part2	*part1	*part1
*staff5	*staff4	*staff3	*staff2	*staff1	*
*I"Corno Secundo in Dis.	*I"Corno Imo	*I"Fagotto	*I"Clarinetto Secudo	*I"Clarinetto Primo	*
*I'cor 2	*I'cor 1	*I'fag	*I'cl 2	*I'cl 1	*
*clefG2	*clefG2	*clefF4	*clefG2	*clefG2	*
*ITrd5c9	*ITrd5c9	*	*ITrd1c2	*ITrd1c2	*
*>[A,A,B,B,C,C,D,D,A,A,B,B]	*>[A,A,B,B,C,C,D,D,A,A,B,B]	*>[A,A,B,B,C,C,D,D,A,A,B,B]	*>[A,A,B,B,C,C,D,D,A,A,B,B]	*>[A,A,B,B,C,C,D,D,A,A,B,B]	*
*k[b-e-a-]	*k[b-e-a-]	*k[e-]	*k[b-e-]	*k[b-e-a-]	*
*M2/4	*M2/4	*M2/4	*M2/4	*M2/4	*
!	!	!LO:TX:a:i:t=Presto	!LO:TX:t=P:problem:brak bemola przy kluczu	!	!
!LO:TX:a:i:t=Presto	!LO:TX:t=P:problem:brakująca partia w źródle	!LO:TX:t=P:problem:przy kluczu tylko znak es	!LO:TX:a:i:t=Presto	!LO:TX:a:i:t=Presto	!
!	!	!LO:SIC:v:s=8BB-/	!	!	!
8BB-/	8ryy	8BB/	8r	8r	.
=1	=1	=1	=1	=1	=1
*>A	*>A	*>A	*>A	*>A	*
*all\right	*all\right	*all\right	*	*all\right	*
!	!	!	!LO:TX:a:t=4	!LO:TX:a:t=3	!
!	!	!	!LO:N:vis=00	!LO:N:vis=0	!
8E-/L	2ryy	8E-\L	0r	1r	.
8E-/	.	8E-\	.	.	.
8G/	.	8G\	.	.	.
8E-/J	.	8E-\J	.	.	.
=2	=2	=2	=2	=2	=2
!	!	!LO:SIC:v:s=8BB-/L	!	!	!
8BB-/L	2ryy	8BB/L	.	.	.
!	!	!LO:SIC:v:s=8BB-/	!	!	!
8BB-/	.	8BB/	.	.	.
!	!	!LO:SIC:v:s=8BB-/	!	!	!
8BB-/	.	8BB/	.	.	.
!	!	!LO:SIC:v:s=8BB-/J	!	!	!
8BB-/J	.	8BB/J	.	.	.
=3	=3	=3	=3	=3	=3
8E-/L	2ryy	8E-\L	.	2r	.
8E-/	.	8E-\	.	.	.
8G/	.	8G\	.	.	.
8E-/J	.	8E-\J	.	.	.
=4	=4	=4	=4	=4	=4
!	!	!LO:SIC:v:s=4B-\	!	!	!
4B-/	2ryy	4B\	.	4r	.
4r	.	4r	.	8r	.
.	.	.	.	8b-\	.
=5	=5	=5	=5	=5	=5
*	*	*	*	*	*above
!	!	!	!	!	!LO:DY:rj
4B-/	2ryy	4D\	4ff\	4aa-\	fp
4r	.	8E-\L	8ee-\	8gg\L	.
.	.	8G\J	8r	8ee-\J	.
=6	=6	=6	=6	=6	=6
!	!	!LO:SIC:v:s=4A-\	!	!	!
4B-/	2ryy	4A\	4f/	4dd\	fp
8G/	.	8G\L	8g/	8ee-\L	.
8r	.	8E-\J	8r	8gg\J	.
!LO:LB:g=original	!	!	!	!	!
=7	=7	=7	=7	=7	=7
!LO:TX:t=P:problem:brakujący takt	!	!	!	!	!
2ryy	2ryy	4D\	4ff\	4aa-\	.
.	.	8E-\L	8ee-\	8gg\L	.
.	.	8G\J	8r	8ee-\J	p
!	!	!LO:LB:g=original	!	!	!
=8	=8	=8	=8	=8	=8
!	!	!LO:SIC:v:s=4A-\	!	!	!
4B-/	2ryy	4A\	4f/	4dd\	f
8r	.	8G\L	8g/	8ee-\	.
8e-\	.	8E-\J	8r	8r	.
=9	=9	=9	=9	=9	=9
!	!	!LO:SIC:v:s=8A-\	!	!	!
4r	2ryy	8A\	8cc\	8ff\	p
.	.	8r	8r	8r	.
!	!	!LO:SIC:v:s=8B-\	!	!	!
4B-/	.	8B\	8f/	8dd\	.
.	.	8r	8r	8r	.
!	!	!	!LO:LB:g=original	!LO:LB:g=original	!
=10	=10	=10	=10	=10	=10
4G/	4ryy	4E-\	4g/	4ee-\	.
8r	8ryy	8r	8r	8r	.
=:|!|:	=:|!|:	=:|!|:	=:|!|:	=:|!|:	=:|!|:
*>B	*>B	*>B	*>B	*>B	*
8r	8ryy	8r	8gg\	8bb-\	.
=11	=11	=11	=11	=11	=11
8e-\L	2ryy	4E-\	8ee-\L	8gg\L	.
8f\J	.	.	8ff\J	8aa-\J	.
4g\	.	8r	4gg\	4bb-\	.
.	.	8E-\	.	.	.
=12	=12	=12	=12	=12	=12
8e-\L	2ryy	4E-\	8ee-\L	8gg\L	.
8f\J	.	.	8ff\J	8aa-\J	.
4g\	.	8r	4gg\	4bb-\	.
.	.	8E-\	.	.	.
=13	=13	=13	=13	=13	=13
!LO:TX:a:t=1	!	!	!	!	!
2r	2ryy	4E-\	8aa\L	8ccc\L	.
.	.	.	8gg\	8bb-\	.
.	.	8D\L	8ff\	8aa-\	.
!	!	!	!LO:TX:a:t=vi	!	!
.	.	8E-\J	8ee-\J	8gg\J	.
=14	=14	=14	=14	=14	=14
!	!	!LO:TX:t=P:problem:mixed beam	!LO:TX:t=P:problem:brak 3 taktow	!	!
!	!	!LO:SIC:v:s=8BB-/L	!	!	!
8B-/L	2ryy	8BB/L	2ryy	8ff\L	.
!	!	!LO:SIC:v:s=8B-\J	!	!	!
8e-/J	.	8B\J	.	8gg\J	.
!	!	!LO:SIC:v:s=4BB-/	!	!	!
4f\	.	4BB/	.	4aa-\	.
=15	=15	=15	=15	=15	=15
4e-\	2ryy	4E-\	2ryy	8gg\L	.
.	.	.	.	8aa-\	.
4r	.	8r	.	8bb-\	.
.	.	8E-\	.	8gg\J	.
!LO:LB:g=original	!	!	!	!	!
=16	=16	=16	=16	=16	=16
!LO:TX:a:t=1	!	!	!	!	!
2r	2ryy	4E-\	2ryy	8ccc\L	.
.	.	.	.	8bb-\	.
.	.	8D\L	.	8aa-\	.
.	.	8E-\J	.	8gg\J	.
=17	=17	=17	=17	=17	=17
!	!	!	!LO:TX:a:t=de	!	!
!	!	!LO:SIC:v:s=8BB-/L	!	!	!
8B-/L	2ryy	8BB/L	8dd\L	8ff\L	.
8e-/	.	8AAn/	8ee-\	8gg\	.
!	!	!LO:SIC:v:s=8BB-/	!	!	!
8B-/	.	8BB/	8dd\	8ff\	.
8e-/J	.	8AA/J	8ee-\J	8gg\J	.
!	!	!LO:LB:g=original	!	!LO:LB:g=original	!
=18	=18	=18	=18	=18	=18
!	!	!LO:SIC:v:s=4BB-/	!	!	!
4B-/	2ryy	4BB/	4dd\	4ff\	.
8r	.	8r	4r	4r	.
!	!	!LO:SIC:v:s=8BB-/	!	!	!
8BB-/	.	8BB/	.	.	.
=19	=19	=19	=19	=19	=19
!	!	!	!LO:TX:a:t=4	!LO:TX:a:t=3	!
!	!	!	!LO:N:vis=00	!LO:N:vis=0	!
8E-/L	2ryy	8E-\L	0r	1r	.
8E-/	.	8E-\	.	.	.
8G/	.	8G\	.	.	.
8E-/J	.	8E-\J	.	.	.
=20	=20	=20	=20	=20	=20
*	*	*tremolo	*	*	*
!	!	!LO:SIC:v:s=8BB-/L	!	!	!
8BB-/L	2ryy	8BB/L	.	.	.
!	!	!LO:SIC:v:s=8BB-/	!	!	!
8BB-/	.	8BB/	.	.	.
!	!	!LO:SIC:v:s=8BB-/	!	!	!
8BB-/	.	8BB/	.	.	.
!	!	!LO:SIC:v:s=8BB-/J	!	!	!
8BB-/J	.	8BB/J	.	.	.
*	*	*Xtremolo	*	*	*
=21	=21	=21	=21	=21	=21
8E-/L	2ryy	8E-\L	.	2r	.
8E-/	.	8E-\	.	.	.
8G/	.	8G\	.	.	.
8E-/J	.	8E-\J	.	.	.
=22	=22	=22	=22	=22	=22
!	!	!LO:SIC:v:s=4B-\	!	!	!
4B-/	2ryy	4B\	.	4r	.
4A-/	.	4r	.	8r	.
.	.	.	.	8b-\	.
=23	=23	=23	=23	=23	=23
4B-\	2ryy	4D\	4ff\	4aa-\	f
8e-\	.	8E-\L	8ee-\	8gg\L	.
8r	.	8G\J	8r	8ee-\J	.
!LO:LB:g=original	!	!	!LO:LB:g=original	!	!
=24	=24	=24	=24	=24	=24
!	!	!LO:SIC:v:s=4A-\	!	!	!
4B-/	2ryy	4A\	4f/	4dd\	.
8G/	.	8G\L	8g/	8ee-\L	.
8r	.	8E-\J	8r	8gg\J	.
=25	=25	=25	=25	=25	=25
4B-/	2ryy	4D\	4ff\	4aa-\	.
8e-\	.	8E-\L	8ee-\	8gg\L	.
8r	.	8G\J	8r	8ee-\J	.
=26	=26	=26	=26	=26	=26
!	!	!LO:SIC:v:s=4A-\	!	!	!
4B-/	2ryy	4A\	4f/	4dd\	f
8G/	.	8G\L	8g/	8ee-\	.
8r	.	8E-\J	8r	8r	.
=27	=27	=27	=27	=27	=27
!	!	!LO:SIC:v:s=8A-\	!	!	!
4r	2ryy	8A\	8cc\	8ff\	.
.	.	8r	8r	8r	.
!	!	!LO:SIC:v:s=8B-\	!	!	!
4B-/	.	8B\	8f/	8dd\	.
.	.	8r	8r	8r	.
=28	=28	=28	=28	=28	=28
4G/	2ryy	4E-\	4g/	4ee-\	.
!	!	!LO:N:vis=8	!	!	!
4r	.	4r	4r	4r	.
!LO:LB:g=original	!LO:LB:g=original	!	!LO:LB:g=original	!LO:LB:g=original	!
=29:|!|:	=29:|!|:	=29:|!|:	=29:|!|:	=29:|!|:	=29:|!|:
*>C	*>C	*>C	*>C	*>C	*
*k[b-e-a-]	*k[b-e-a-]	*k[e-a-]	*k[b-e-a-]	*k[b-e-a-]	*
*M2/4	*M2/4	*M2/4	*M2/4	*M2/4	*
!	!	!LO:TX:t=P:problem:przy kluczu tylko znak es i as	!	!	!
!	!	!LO:TX:a:i:t=Trio	!	!	!
!LO:TX:a:i:t=Trio	!	!LO:TX:t=P:problem:mixed beam	!LO:TX:a:i:t=Trio	!LO:TX:a:i:t=Trio	!
2E-/	2ryy	8EE-/L	4.gg\	4.bb-\	.
.	.	8E-\	.	.	.
.	.	8E-\	.	.	.
.	.	8E-\J	8ee-\	8gg\	.
=30	=30	=30	=30	=30	=30
!	!	!LO:TX:t=P:problem:mixed beam	!	!	!
4E-/	2ryy	8EE-/L	8aa-\L	8ccc\L	.
.	.	8E-\	8gg\	8bb-\	.
4r	.	8E-\	8ff\	8aa-\	.
.	.	8E-\J	8ee-\J	8gg\J	.
=31	=31	=31	=31	=31	=31
!	!	!LO:TX:t=P:problem:mixed beam	!	!	!
!	!	!LO:SIC:v:s=8BB-/	!	!	!
8B-\L	2ryy	8BB/L	8dd\L	8ff\L	.
!	!	!LO:SIC:v:s=8B-\	!	!	!
8e-\	.	8B\	8ee-\	8gg\	.
!	!	!LO:SIC:v:s=8B-\	!	!	!
8f\	.	8B\	8ff\	8aa-\	.
!	!	!LO:SIC:v:s=8B-\J	!	!	!
8e-\J	.	8B\J	8ee-\J	8gg\J	.
=32	=32	=32	=32	=32	=32
!	!	!LO:TX:t=P:problem:mixed beam	!	!	!
!	!	!LO:SIC:v:s=8BB-/	!	!	!
4e-\	2ryy	8BB/L	4ee-\	4gg\	.
!	!	!LO:SIC:v:s=8B-\	!	!	!
.	.	8B\	.	.	.
!	!	!LO:SIC:v:s=8B-\	!	!	!
8B-/	.	8B\	8dd\	8ff\	.
!	!	!LO:SIC:v:s=8B-\J	!	!	!
8r	.	8B\J	8r	8r	.
=33	=33	=33	=33	=33	=33
!	!	!LO:TX:t=P:problem:mixed beam	!	!	!
2E-/	2ryy	8EE-/L	4.g/	4.b-\	.
.	.	8E-\	.	.	.
.	.	8E-\	.	.	.
.	.	8E-\J	8b-\	8ee-\	.
=34	=34	=34	=34	=34	=34
*	*	*tremolo	*	*	*
!	!	!LO:TX:t=....	!	!	!
4E-/	2ryy	8E-\L	4.a-\	4.cc\	.
.	.	8E-\	.	.	.
4r	.	8E-\	.	.	.
.	.	8E-\J	8cc\	8aa-\	.
*	*	*Xtremolo	*	*	*
!LO:LB:g=original	!	!	!	!	!
=35	=35	=35	=35	=35	=35
!	!	!LO:TX:t=P:problem:mixed beam	!	!	!
!	!	!LO:SIC:v:s=8BB-/	!	!	!
4r	2ryy	8BB/L	8b-\L	8gg\L	.
!	!	!LO:SIC:v:s=8B-\	!	!	!
.	.	8B\	8a-\	8ff\	.
!	!	!LO:SIC:v:s=8B-\	!	!	!
4B-/	.	8B\	8g\	8ee-\	.
!	!	!LO:SIC:v:s=8B-\J	!	!	!
.	.	8B\J	8f\J	8dd\J	.
!	!	!LO:LB:g=original	!	!LO:LB:g=original	!
=36	=36	=36	=36	=36	=36
!	!	!LO:TX:t=P:problem:mixed beam	!	!	!
.	.	.	.	8qqdd/	.
4G/	4ryy	8E-\L	4g/	4ee-\	.
!	!	!LO:SIC:v:s=8BB-/	!	!	!
.	.	8BB/	.	.	.
!LO:TX:t=P:problem:LO:N:vis=4	!	!	!	!	!
8r	8ryy	8EE-/J	8r	8r	.
!	!	!	!LO:LB:g=original	!	!
=:|!|:	=:|!|:	=:|!|:	=:|!|:	=:|!|:	=:|!|:
*>D	*>D	*>D	*>D	*>D	*
8r	8ryy	8r	8r	8ee-\	.
=37	=37	=37	=37	=37	=37
8g\L	2ryy	4r	8gg\L	8bb-\L	.
8e-\	.	.	8ee-\	8gg\	.
!	!	!LO:TX:t=P:problem:mixed beam	!	!	!
!	!	!LO:SIC:v:s=8B-\L	!	!	!
8B-\	.	8B\L	8dd\	8ee-\	.
!	!	!LO:SIC:v:s=8BB-/J	!	!	!
8e-\J	.	8BB/J	8ff\J	8aa-\J	.
=38	=38	=38	=38	=38	=38
!	!	!LO:TX:t=P:problem:mixed beam	!	!	!
4f\	2ryy	8E-\L	4ff\	4aa-\	.
!	!	!LO:SIC:v:s=8BB-/	!	!	!
.	.	8BB/	.	.	.
8e-\	.	8EE-/J	8ee-\	8gg\L	.
8r	.	8r	8r	8ee-\J	.
=39	=39	=39	=39	=39	=39
8g\L	2ryy	4r	8gg\L	8bb-\L	.
8e-\	.	.	8ee-\	8gg\	.
!	!	!LO:TX:t=P:problem:mixed beam	!	!	!
!	!	!LO:SIC:v:s=8B-\L	!	!	!
8B-\	.	8B\L	8dd\	8ee-\	.
!	!	!LO:SIC:v:s=8BB-/	!	!	!
8f\J	.	8BB/J	8ff\J	8aa-\J	.
=40	=40	=40	=40	=40	=40
4f\	2ryy	8E-/L	4ff\	4aa-\	.
!	!	!LO:SIC:v:s=8BB-/	!	!	!
.	.	8BB/	.	.	.
8e-\	.	8GG/	8ee-\	8gg\	.
!	!	!LO:SIC:v:s=8BB-/J	!	!	!
8r	.	8BB/J	8r	8r	.
=41	=41	=41	=41	=41	=41
!	!	!LO:TX:t=P:problem:mixed beam	!	!	!
2E-/	2ryy	8EE-/L	4.g/	4.b-\	.
.	.	8E-\	.	.	.
.	.	8E-\	.	.	.
.	.	8E-\J	8b-\	8ee-\	.
!LO:LB:g=original	!	!	!	!	!
=42	=42	=42	=42	=42	=42
!	!	!LO:TX:t=P:problem:mixed beam	!	!	!
4E-/	2ryy	8EE-/L	4.a-\	4.cc\	.
.	.	8E-\	.	.	.
4r	.	8E-\	.	.	.
.	.	8E-\J	8cc\	8aa-\	.
=43	=43	=43	=43	=43	=43
4r	2ryy	8r	8b-\L	8gg\L	.
!	!	!LO:SIC:v:s=8BB-/L	!	!	!
.	.	8BB/L	8a-\	8ff\	.
4B-/	.	8D/	8g\	8ee-\	.
!	!	!LO:SIC:v:s=8BB-/J	!	!	!
.	.	8BB/J	8f\J	8dd\J	.
!	!	!LO:LB:g=original	!	!LO:LB:g=original	!
=44	=44	=44	=44	=44	=44
!	!	!LO:TX:t=P:problem:mixed beam	!	!	!
4G/	2ryy	8E-\L	4g/	4ee-\	.
!	!	!LO:SIC:v:s=8BB-/	!	!	!
.	.	8BB/	.	.	.
!LO:TX:i:b:t=Finis	!	!	!LO:TX:b:i:t=Finale D.C	!	!
4r	.	8EE-/J	4r	4r	.
!	!	!LO:TX:i:b:t=Fine D	!	!	!
.	.	8r	.	.	.
=:|!	=:|!	=:|!	=:|!	=:|!	=:|!
*-	*-	*-	*-	*-	*-
!!!system-decoration: [(s1,s2,s3)][(s4,s5)]
!!!RDF**dynam: fp = fp:
!!!RDF**dynam: p = p:
!!!RDF**dynam: f = for
!!!EED: Andrzej Borzym
!!!EST: 2021-06-24
!!!ENC: Tomasz Grochalski
!!!END: 2021-06-18
